brandFactory_export/3.Masa/Alerta_3Masa.svg

<?xml version="1.0" encoding="UTF-8"?>
<svg width="24px" height="24px" viewBox="0 0 24 24" version="1.1" xmlns="http://www.w3.org/2000/svg" xmlns:xlink="http://www.w3.org/1999/xlink">
    <title>3.Masa/Alerta_3Masa</title>
    <g id="Symbols" stroke="none" stroke-width="1" fill="none" fill-rule="evenodd">
        <g id="3.Masa/Alerta_3Masa" fill="#5CB615" fill-rule="nonzero">
            <path d="M23.5294118,22.4134454 L12.4571429,0.494117647 C12.302521,0.188235294 12.0235294,0.00672268908 11.7109244,0.00672268908 C11.3983193,0.00672268908 11.1193277,0.191596639 10.9680672,0.497478992 L0.131092437,22.4134454 C-0.0100840336,22.6957983 0.00336134454,23.0117647 0.157983193,23.2605042 C0.312605042,23.5092437 0.598319328,23.6638655 0.917647059,23.6638655 L22.7495798,23.6638655 C23.0689076,23.6638655 23.3512605,23.5159664 23.5092437,23.2638655 C23.6672269,23.0117647 23.6705882,22.6957983 23.5294118,22.4134454 L23.5294118,22.4134454 Z M11.8319328,20.3630252 C11.4117647,20.3630252 11.1663866,20.1210084 11.1663866,19.697479 C11.1663866,19.2739496 11.4084034,19.0319328 11.8319328,19.0319328 C12.2554622,19.0319328 12.497479,19.2739496 12.497479,19.697479 C12.497479,20.1210084 12.2521008,20.3630252 11.8319328,20.3630252 Z M12.507563,17.1563025 C12.507563,17.5226891 12.2117647,17.8184874 11.8453782,17.8184874 C11.4789916,17.8184874 11.1831933,17.5226891 11.1831933,17.1563025 L11.1831933,7.89915966 C11.1831933,7.53277311 11.4789916,7.23697479 11.8453782,7.23697479 C12.2117647,7.23697479 12.507563,7.53277311 12.507563,7.89915966 L12.507563,17.1563025 Z" id="Alerta_3Masa"></path>
        </g>
    </g>
</svg>

<svg width="24" height="24" viewBox="0 0 24 24" xmlns="http://www.w3.org/2000/svg"><path d="M23.53 22.413L12.456.494c-.154-.306-.433-.487-.746-.487s-.592.185-.743.49L.131 22.413a.862.862 0 00.027.848c.155.248.44.403.76.403H22.75a.88.88 0 00.76-.4.86.86 0 00.02-.85zm-11.698-2.05c-.42 0-.666-.242-.666-.666 0-.423.242-.665.666-.665.423 0 .665.242.665.665 0 .424-.245.666-.665.666zm.676-3.207a.661.661 0 11-1.325 0V7.9a.661.661 0 111.325 0v9.257z" fill="#5CB615" fill-rule="nonzero"/></svg>
